frontend/src/assets/icons/Servings-light.svg

<svg width="77" height="59" viewBox="0 0 77 59" fill="none" xmlns="http://www.w3.org/2000/svg">
<path d="M67.0701 9.8C65.6801 14.14 66.3501 18.96 68.8101 22.24C69.1501 22.69 69.5201 23.12 69.7801 23.64C70.2801 24.64 70.2901 25.88 70.3001 27.06C70.3401 36.14 70.3701 45.22 70.4101 54.3C70.4101 54.77 70.4101 55.25 70.6001 55.66C70.7901 56.07 71.5701 56.35 72.0101 56.23C72.7801 56.02 73.5301 54.31 73.4601 53.49C72.7801 45.45 72.8401 37.45 72.5301 29.34C72.4601 27.47 73.2101 25.09 73.2801 23.21C73.3101 22.56 73.0501 22.23 73.3601 21.64C73.6101 21.17 73.9601 20.74 74.3001 20.34C75.7501 18.61 75.9501 16.2 76.0801 13.99C76.2101 11.78 75.0501 8.58 75.4601 6.38C75.1401 8.26 74.2801 11.85 73.9601 13.73C73.8601 14.31 73.4701 15.11 72.9801 14.92C72.8101 14.85 72.7001 14.67 72.6201 14.5C71.6901 12.7 70.9901 10.75 70.5301 8.72001C70.4701 10.71 70.0101 12.74 69.1801 14.61C69.0901 14.82 68.9701 15.05 68.7701 15.14C68.5401 15.24 68.3001 15.11 68.1101 14.96C66.8401 13.93 66.3701 11.91 67.0101 10.17" fill="#C4B964"/>
<path d="M32.23 1.74995L28.36 2.95995C26.91 3.40995 25.43 3.87995 24.18 4.85995C23.15 5.65995 22.34 6.73995 21.55 7.80995C19.8 10.18 18.04 12.56 16.68 15.19C13.93 20.53 13.02 26.68 13.68 32.37C13.89 34.12 14.24 35.86 14.96 37.39C15.7 38.97 16.81 40.28 17.91 41.58C20.71 44.89 23.56 48.24 27.16 50.56C30.49 52.7 34.36 53.88 38.32 54.5C40.23 54.8 42.19 54.98 44.16 54.66C46.7 54.25 49.14 53.04 51.5 51.77C53.2 50.86 54.9 49.9 56.41 48.61C59.58 45.91 61.68 41.92 62.63 37.83C63.58 33.74 63.46 29.56 62.81 25.6C61.93 20.2 60.08 15.09 57.39 10.62C56.51 9.14995 55.52 7.72995 54.25 6.62995C53.02 5.55995 51.56 4.81995 50.09 4.12995C47.06 2.70995 43.91 1.43995 40.56 0.899953C37.21 0.359953 33.62 0.579953 30.3 2.03995" fill="#C4B964"/>
<path d="M7.79 52.6399C7.74 51.9299 7.66 51.22 7.57 50.52C7.9 43.87 7.2 37.2899 7.47 30.6399C7.55 29.4199 7.64 28.21 7.73 26.99C7.76 26.52 7.45 26.28 7.11 26.28C7.17 25.4 7.25 24.53 7.36 23.66C7.45 22.94 7.58 22.24 7.74 21.54C8.01 21.19 8.24 20.82 8.41 20.52C9.96 17.86 10.19 14.75 9.78 11.93C9.52 10.14 9.05 8.39995 8.54 6.70995C8.07 5.15995 6.86 4.76995 5.43 4.61995C5.23 4.59995 5.01 4.72995 4.85 4.90995C4.73 4.83995 4.58 4.81995 4.39 4.88995C2.18 5.65995 1.11 8.11995 0.760003 10.36C0.340003 13.05 0.720003 15.81 1.8 18.1C2.33 19.22 3.09 20.1299 3.76 21.1299C3.92 21.5099 4.12 21.88 4.37 22.19C4.78 23.06 5.03 24.03 5.17 25.01C5.6 28.01 5 31.15 4.65 34.22C3.93 40.5 3.69 46.94 4.29 53.08C4.41 54.33 4.64 55.6 5.22 56.65C5.5 57.16 5.79 57.74 6.46 57.58C6.95 57.46 7.31 57.05 7.53 56.57C8.07 55.4 7.88 53.84 7.79 52.66V52.6399ZM7.32 9.94995C7.32 9.94995 7.32 9.94995 7.32 9.93995C7.32 9.93995 7.32 9.93995 7.32 9.94995ZM5.41 42.4399C5.41 43.2499 5.41 44.06 5.41 44.88C5.41 46.55 5.44 48.2099 5.47 49.8699C5.41 48.6799 5.37 47.4899 5.36 46.2999C5.35 45.0199 5.37 43.7299 5.41 42.4399Z" fill="#C4B964"/>
<path d="M5.21009 35.52C5.43009 31.59 5.66009 27.63 5.53009 23.69C5.49009 22.35 4.68009 21.08 4.01009 19.94C3.05009 18.31 1.95009 16.75 1.39009 14.92C0.480089 11.93 0.850089 8.48996 2.62009 5.86996C3.18009 5.03996 3.93009 4.13996 4.91009 3.80996C6.17009 3.37996 7.07009 4.22996 7.76009 5.16996C8.77009 6.54996 9.48009 8.13996 9.90009 9.78996C10.8301 13.44 10.0801 16.95 8.33009 20.23C7.99009 20.88 7.62009 21.51 7.24009 22.13C6.74009 22.96 6.72009 23.12 6.80009 24.1C6.95009 26.06 7.09009 28.03 7.21009 29.99C7.68009 37.78 7.88009 45.58 7.94009 53.39C7.94009 54.28 8.07009 55.27 7.85009 56.14C7.65009 56.96 6.94009 57.36 6.15009 56.98C5.45009 56.65 5.11009 55.96 4.90009 55.25C4.33009 53.3 4.60009 50.86 4.62009 48.86C4.66009 44.41 4.96009 39.96 5.21009 35.51C5.24009 34.91 4.32009 34.92 4.28009 35.51C4.02009 40.2 3.70009 44.9 3.69009 49.6C3.69009 51.93 3.02009 58.07 6.82009 58.08C8.06009 58.08 8.68009 57.02 8.82009 55.92C9.11009 53.75 8.85009 51.4 8.82009 49.21C8.75009 44.59 8.63009 39.97 8.42009 35.35C8.32009 33.07 8.19009 30.8 8.04009 28.52C7.97009 27.37 7.88009 26.23 7.80009 25.08C7.76009 24.5 7.62009 23.85 7.75009 23.28C7.88009 22.71 8.29009 22.17 8.60009 21.64C10.4801 18.38 11.6501 14.9 11.1101 11.1C10.8601 9.32996 10.2901 7.61996 9.43009 6.04996C8.73009 4.77996 7.75009 3.16996 6.24009 2.81996C3.05009 2.07996 0.890089 6.44996 0.310089 8.89996C-0.669911 13 0.790089 16.43 2.88009 19.87C3.52009 20.93 4.30009 22.08 4.53009 23.31C4.78009 24.61 4.62009 26.08 4.60009 27.4C4.56009 30.11 4.43009 32.82 4.28009 35.53C4.25009 36.13 5.17009 36.12 5.21009 35.53V35.52Z" fill="#2F3F1A"/>
<path d="M66.3101 3.26997C65.6701 7.07997 65.4101 10.93 65.5801 14.79C65.6601 16.51 65.7301 18.31 66.3101 19.95C66.8401 21.45 67.9601 22.27 68.7601 23.57C69.3401 24.51 69.1401 25.67 69.1101 26.72C69.0801 27.77 69.0401 28.85 69.0001 29.92C68.9401 31.97 68.8801 34.02 68.8301 36.08C68.7401 40.27 68.6801 44.46 68.6601 48.65C68.6601 50.71 68.6601 52.76 68.6601 54.82C68.6601 55.95 68.6601 56.81 69.8501 57.2C70.8001 57.52 72.9101 58.02 73.7001 57.11C73.9801 56.78 73.9901 56.34 73.9901 55.94C74.0101 54.87 73.9101 53.77 73.8801 52.7C73.5901 44.31 73.2801 35.92 73.0001 27.52C72.9301 25.23 72.9801 23.15 74.4301 21.26C75.4701 19.9 75.9301 18.56 76.0701 16.86C76.4301 12.32 76.2301 7.66997 76.0001 3.12997C75.9701 2.53997 75.0401 2.52997 75.0701 3.12997C75.2601 6.81997 75.3201 10.51 75.2401 14.2C75.2101 15.8 75.3001 17.58 74.7001 19.1C74.1001 20.62 72.7701 21.64 72.3401 23.29C71.9801 24.67 72.0301 26.12 72.0701 27.53C72.1301 29.52 72.2101 31.52 72.2801 33.51C72.4101 37.25 72.5401 40.99 72.6701 44.73C72.7301 46.48 72.7901 48.22 72.8501 49.97C72.8801 50.97 72.9201 51.96 72.9501 52.96C72.9701 53.46 72.9801 53.96 73.0001 54.46C73.0101 54.88 73.1901 55.58 73.0501 55.96C72.6901 56.95 70.8201 56.84 70.0801 56.33C69.2901 55.79 69.5701 54.4 69.5701 53.61C69.5701 51.64 69.5701 49.66 69.5701 47.69C69.6101 40.22 70.0201 32.75 70.0601 25.29C70.0601 23.77 69.4001 22.93 68.4501 21.84C67.0601 20.24 66.7101 18.33 66.5601 16.27C66.2501 12.03 66.4701 7.74997 67.1801 3.55997C67.2801 2.97997 66.3901 2.72997 66.2901 3.30997L66.3101 3.26997Z" fill="#2F3F1A"/>
<path d="M66.42 3.41998C66.46 5.63998 66.65 7.84998 66.99 10.05C67.16 11.13 67.36 12.21 67.6 13.28C67.76 13.98 68.01 14.84 68.85 14.94C69.69 15.04 69.9 14.28 69.94 13.6C70.01 12.48 70.08 11.37 70.14 10.25C70.28 7.93998 70.42 5.62998 70.56 3.31998L69.65 3.43998C70.1 5.52998 70.55 7.61998 70.99 9.71998C71.21 10.75 71.43 11.78 71.65 12.8C71.79 13.45 72.01 14.18 72.67 14.48C72.9 14.58 73.17 14.55 73.3 14.31C73.73 13.58 73.85 12.77 74 11.95C74.18 10.95 74.37 9.94998 74.55 8.94998C74.91 6.98998 75.27 5.02998 75.63 3.06998C75.74 2.48998 74.84 2.23998 74.74 2.81998C74.39 4.70998 74.05 6.58998 73.7 8.47998C73.53 9.39998 73.36 10.33 73.19 11.25C73.03 12.11 72.95 13.06 72.5 13.83L73.13 13.66C72.48 13.37 72.45 12.14 72.32 11.55L71.73 8.79998C71.33 6.92998 70.93 5.05998 70.53 3.17998C70.42 2.64998 69.65 2.79998 69.62 3.29998C69.51 5.15998 69.39 7.01998 69.28 8.87998C69.23 9.76998 69.17 10.67 69.12 11.56L69.04 12.9C69.03 13.12 69.02 13.35 69 13.57C68.99 13.76 69.06 14 68.87 13.95C68.59 13.89 68.5 13.11 68.45 12.89C68.35 12.43 68.25 11.96 68.16 11.5C67.99 10.61 67.84 9.71998 67.72 8.81998C67.48 7.01998 67.36 5.20998 67.33 3.39998C67.33 2.79998 66.39 2.79998 66.4 3.39998L66.42 3.41998Z" fill="#2F3F1A"/>
<path d="M28.7302 5.83995C34.4802 4.14995 40.6802 3.52995 46.4002 5.65995C51.8702 7.68995 56.1402 12.3499 58.7202 17.5099C60.0602 20.1899 60.4802 23.1999 60.9102 26.1299C61.3402 29.0599 61.6302 31.7999 61.2802 34.6699C60.6502 39.7199 58.2802 44.5799 54.5502 48.0599C50.6102 51.7399 45.2402 53.5499 39.8902 53.4199C36.9502 53.3499 34.0902 52.6499 31.3702 51.5599C28.6502 50.4699 25.5702 49.1599 23.4502 47.0899C20.8102 44.5199 19.0202 40.8099 17.7902 37.3699C16.5602 33.9299 15.9202 30.5899 15.8602 27.0899C15.7902 23.0399 16.6102 18.9599 18.5802 15.3899C20.9202 11.1599 24.6802 8.06995 28.9902 5.97995C29.5302 5.71995 29.0602 4.91995 28.5202 5.17995C24.4702 7.14995 20.8602 9.98995 18.4302 13.8199C16.3502 17.0999 15.2502 20.8999 14.9902 24.7599C14.4902 32.2399 16.9002 40.4099 21.5402 46.3199C23.3202 48.5899 25.6902 49.9199 28.2502 51.1599C31.1102 52.5499 34.1002 53.6799 37.2702 54.1199C42.7702 54.8799 48.6002 53.6599 53.1402 50.3999C57.2602 47.4299 60.1802 42.9999 61.5302 38.1299C62.2602 35.4999 62.5102 32.7599 62.3102 30.0399C62.0902 26.9299 61.6402 23.6899 60.8602 20.6699C60.0002 17.3499 58.1802 14.5399 56.0902 11.8599C54.0002 9.17995 51.6302 7.05995 48.6302 5.59995C42.2802 2.51995 35.0902 2.99995 28.4802 4.93995C27.9102 5.10995 28.1502 5.99995 28.7302 5.82995V5.83995Z" fill="#2F3F1A"/>
<path d="M27.56 2.61999C34.02 0.719993 40.94 0.0499935 47.36 2.44999C53.41 4.69999 58.14 9.87999 61.01 15.57C62.45 18.43 62.95 21.62 63.42 24.76C63.92 28.1 64.33 31.44 63.91 34.81C63.22 40.36 60.66 45.69 56.62 49.57C52.25 53.77 46.25 55.87 40.23 55.78C36.93 55.73 33.72 54.98 30.66 53.76C27.6 52.54 24.4 51.17 22 49.03C18.84 46.21 16.73 41.8 15.33 37.86C14.01 34.17 13.23 30.27 13.17 26.35C13.1 21.82 14.02 17.26 16.22 13.28C18.83 8.55999 23.03 5.11999 27.84 2.78999C28.38 2.52999 27.91 1.72999 27.37 1.98999C22.87 4.16999 18.86 7.32999 16.15 11.58C13.81 15.26 12.58 19.54 12.3 23.88C11.78 32.13 14.43 41.07 19.48 47.63C21.55 50.32 24.33 51.86 27.33 53.3C30.33 54.74 33.73 56.01 37.18 56.47C43.24 57.28 49.62 55.94 54.64 52.39C59.28 49.1 62.57 44.1 64.07 38.64C64.89 35.67 65.16 32.59 64.92 29.52C64.65 25.99 64.16 22.31 63.23 18.9C62.3 15.49 60.35 12.46 58.17 9.62999C55.99 6.79999 53.18 4.15999 49.8 2.50999C42.72 -0.960006 34.68 -0.430007 27.3 1.73999C26.73 1.90999 26.97 2.79999 27.55 2.62999L27.56 2.61999Z" fill="#2F3F1A"/>
</svg>

<?xml version="1.0" encoding="UTF-8"?>
<svg id="Capa_2" data-name="Capa 2" xmlns="http://www.w3.org/2000/svg" viewBox="0 0 76.27 58.08">
  <defs>
    <style>
      .cls-1 {
        fill: #2f3f1a;
      }

      .cls-1, .cls-2 {
        stroke-width: 0px;
      }

      .cls-2 {
        fill: #edcd46;
      }
    </style>
  </defs>
  <g id="Light_Version" data-name="Light Version">
    <g>
      <path class="cls-2" d="M67.07,9.8c-1.39,4.34-.72,9.16,1.74,12.44.34.45.71.88.97,1.4.5,1,.51,2.24.52,3.42.04,9.08.07,18.16.11,27.24,0,.47,0,.95.19,1.36s.97.69,1.41.57c.77-.21,1.52-1.92,1.45-2.74-.68-8.04-.62-16.04-.93-24.15-.07-1.87.68-4.25.75-6.13.03-.65-.23-.98.08-1.57.25-.47.6-.9.94-1.3,1.45-1.73,1.65-4.14,1.78-6.35s-1.03-5.41-.62-7.61c-.32,1.88-1.18,5.47-1.5,7.35-.1.58-.49,1.38-.98,1.19-.17-.07-.28-.25-.36-.42-.93-1.8-1.63-3.75-2.09-5.78-.06,1.99-.52,4.02-1.35,5.89-.09.21-.21.44-.41.53-.23.1-.47-.03-.66-.18-1.27-1.03-1.74-3.05-1.1-4.79"/>
      <path class="cls-2" d="M32.23,1.75l-3.87,1.21c-1.45.45-2.93.92-4.18,1.9-1.03.8-1.84,1.88-2.63,2.95-1.75,2.37-3.51,4.75-4.87,7.38-2.75,5.34-3.66,11.49-3,17.18.21,1.75.56,3.49,1.28,5.02.74,1.58,1.85,2.89,2.95,4.19,2.8,3.31,5.65,6.66,9.25,8.98,3.33,2.14,7.2,3.32,11.16,3.94,1.91.3,3.87.48,5.84.16,2.54-.41,4.98-1.62,7.34-2.89,1.7-.91,3.4-1.87,4.91-3.16,3.17-2.7,5.27-6.69,6.22-10.78s.83-8.27.18-12.23c-.88-5.4-2.73-10.51-5.42-14.98-.88-1.47-1.87-2.89-3.14-3.99-1.23-1.07-2.69-1.81-4.16-2.5-3.03-1.42-6.18-2.69-9.53-3.23-3.35-.54-6.94-.32-10.26,1.14"/>
      <g>
        <path class="cls-2" d="M7.79,52.64c-.05-.71-.13-1.42-.22-2.12.33-6.65-.37-13.23-.1-19.88.08-1.22.17-2.43.26-3.65.03-.47-.28-.71-.62-.71.06-.88.14-1.75.25-2.62.09-.72.22-1.42.38-2.12.27-.35.5-.72.67-1.02,1.55-2.66,1.78-5.77,1.37-8.59-.26-1.79-.73-3.53-1.24-5.22-.47-1.55-1.68-1.94-3.11-2.09-.2-.02-.42.11-.58.29-.12-.07-.27-.09-.46-.02-2.21.77-3.28,3.23-3.63,5.47-.42,2.69-.04,5.45,1.04,7.74.53,1.12,1.29,2.03,1.96,3.03.16.38.36.75.61,1.06.41.87.66,1.84.8,2.82.43,3-.17,6.14-.52,9.21-.72,6.28-.96,12.72-.36,18.86.12,1.25.35,2.52.93,3.57.28.51.57,1.09,1.24.93.49-.12.85-.53,1.07-1.01.54-1.17.35-2.73.26-3.91ZM7.32,9.95s0,0,0-.01c0,0,0,0,0,.01,0,0,0,0,0,0ZM5.41,42.44c0,.81,0,1.62,0,2.44,0,1.67.03,3.33.06,4.99-.06-1.19-.1-2.38-.11-3.57-.01-1.28.01-2.57.05-3.86Z"/>
        <path class="cls-1" d="M5.21,35.52c.22-3.93.45-7.89.32-11.83-.04-1.34-.85-2.61-1.52-3.75-.96-1.63-2.06-3.19-2.62-5.02-.91-2.99-.54-6.43,1.23-9.05.56-.83,1.31-1.73,2.29-2.06,1.26-.43,2.16.42,2.85,1.36,1.01,1.38,1.72,2.97,2.14,4.62.93,3.65.18,7.16-1.57,10.44-.34.65-.71,1.28-1.09,1.9-.5.83-.52.99-.44,1.97.15,1.96.29,3.93.41,5.89.47,7.79.67,15.59.73,23.4,0,.89.13,1.88-.09,2.75-.2.82-.91,1.22-1.7.84-.7-.33-1.04-1.02-1.25-1.73-.57-1.95-.3-4.39-.28-6.39.04-4.45.34-8.9.59-13.35.03-.6-.89-.59-.93,0-.26,4.69-.58,9.39-.59,14.09,0,2.33-.67,8.47,3.13,8.48,1.24,0,1.86-1.06,2-2.16.29-2.17.03-4.52,0-6.71-.07-4.62-.19-9.24-.4-13.86-.1-2.28-.23-4.55-.38-6.83-.07-1.15-.16-2.29-.24-3.44-.04-.58-.18-1.23-.05-1.8s.54-1.11.85-1.64c1.88-3.26,3.05-6.74,2.51-10.54-.25-1.77-.82-3.48-1.68-5.05-.7-1.27-1.68-2.88-3.19-3.23C3.05,2.08.89,6.45.31,8.9c-.98,4.1.48,7.53,2.57,10.97.64,1.06,1.42,2.21,1.65,3.44.25,1.3.09,2.77.07,4.09-.04,2.71-.17,5.42-.32,8.13-.03.6.89.59.93,0Z"/>
        <path class="cls-1" d="M66.31,3.27c-.64,3.81-.9,7.66-.73,11.52.08,1.72.15,3.52.73,5.16.53,1.5,1.65,2.32,2.45,3.62.58.94.38,2.1.35,3.15s-.07,2.13-.11,3.2c-.06,2.05-.12,4.1-.17,6.16-.09,4.19-.15,8.38-.17,12.57,0,2.06,0,4.11,0,6.17,0,1.13,0,1.99,1.19,2.38.95.32,3.06.82,3.85-.09.28-.33.29-.77.29-1.17.02-1.07-.08-2.17-.11-3.24-.29-8.39-.6-16.78-.88-25.18-.07-2.29-.02-4.37,1.43-6.26,1.04-1.36,1.5-2.7,1.64-4.4.36-4.54.16-9.19-.07-13.73-.03-.59-.96-.6-.93,0,.19,3.69.25,7.38.17,11.07-.03,1.6.06,3.38-.54,4.9s-1.93,2.54-2.36,4.19c-.36,1.38-.31,2.83-.27,4.24.06,1.99.14,3.99.21,5.98.13,3.74.26,7.48.39,11.22.06,1.75.12,3.49.18,5.24.03,1,.07,1.99.1,2.99.02.5.03,1,.05,1.5.01.42.19,1.12.05,1.5-.36.99-2.23.88-2.97.37-.79-.54-.51-1.93-.51-2.72,0-1.97,0-3.95,0-5.92.04-7.47.45-14.94.49-22.4,0-1.52-.66-2.36-1.61-3.45-1.39-1.6-1.74-3.51-1.89-5.57-.31-4.24-.09-8.52.62-12.71.1-.58-.79-.83-.89-.25h0Z"/>
        <path class="cls-1" d="M66.42,3.42c.04,2.22.23,4.43.57,6.63.17,1.08.37,2.16.61,3.23.16.7.41,1.56,1.25,1.66s1.05-.66,1.09-1.34c.07-1.12.14-2.23.2-3.35.14-2.31.28-4.62.42-6.93l-.91.12c.45,2.09.9,4.18,1.34,6.28.22,1.03.44,2.06.66,3.08.14.65.36,1.38,1.02,1.68.23.1.5.07.63-.17.43-.73.55-1.54.7-2.36.18-1,.37-2,.55-3,.36-1.96.72-3.92,1.08-5.88.11-.58-.79-.83-.89-.25-.35,1.89-.69,3.77-1.04,5.66-.17.92-.34,1.85-.51,2.77-.16.86-.24,1.81-.69,2.58l.63-.17c-.65-.29-.68-1.52-.81-2.11l-.59-2.75c-.4-1.87-.8-3.74-1.2-5.62-.11-.53-.88-.38-.91.12-.11,1.86-.23,3.72-.34,5.58-.05.89-.11,1.79-.16,2.68l-.08,1.34c-.01.22-.02.45-.04.67-.01.19.06.43-.13.38-.28-.06-.37-.84-.42-1.06-.1-.46-.2-.93-.29-1.39-.17-.89-.32-1.78-.44-2.68-.24-1.8-.36-3.61-.39-5.42,0-.6-.94-.6-.93,0h0Z"/>
        <path class="cls-1" d="M28.73,5.84c5.75-1.69,11.95-2.31,17.67-.18,5.47,2.03,9.74,6.69,12.32,11.85,1.34,2.68,1.76,5.69,2.19,8.62s.72,5.67.37,8.54c-.63,5.05-3,9.91-6.73,13.39-3.94,3.68-9.31,5.49-14.66,5.36-2.94-.07-5.8-.77-8.52-1.86s-5.8-2.4-7.92-4.47c-2.64-2.57-4.43-6.28-5.66-9.72s-1.87-6.78-1.93-10.28c-.07-4.05.75-8.13,2.72-11.7,2.34-4.23,6.1-7.32,10.41-9.41.54-.26.07-1.06-.47-.8-4.05,1.97-7.66,4.81-10.09,8.64-2.08,3.28-3.18,7.08-3.44,10.94-.5,7.48,1.91,15.65,6.55,21.56,1.78,2.27,4.15,3.6,6.71,4.84,2.86,1.39,5.85,2.52,9.02,2.96,5.5.76,11.33-.46,15.87-3.72,4.12-2.97,7.04-7.4,8.39-12.27.73-2.63.98-5.37.78-8.09-.22-3.11-.67-6.35-1.45-9.37-.86-3.32-2.68-6.13-4.77-8.81s-4.46-4.8-7.46-6.26c-6.35-3.08-13.54-2.6-20.15-.66-.57.17-.33,1.06.25.89h0Z"/>
        <path class="cls-1" d="M27.56,2.62c6.46-1.9,13.38-2.57,19.8-.17,6.05,2.25,10.78,7.43,13.65,13.12,1.44,2.86,1.94,6.05,2.41,9.19.5,3.34.91,6.68.49,10.05-.69,5.55-3.25,10.88-7.29,14.76-4.37,4.2-10.37,6.3-16.39,6.21-3.3-.05-6.51-.8-9.57-2.02s-6.26-2.59-8.66-4.73c-3.16-2.82-5.27-7.23-6.67-11.17-1.32-3.69-2.1-7.59-2.16-11.51-.07-4.53.85-9.09,3.05-13.07,2.61-4.72,6.81-8.16,11.62-10.49.54-.26.07-1.06-.47-.8-4.5,2.18-8.51,5.34-11.22,9.59-2.34,3.68-3.57,7.96-3.85,12.3-.52,8.25,2.13,17.19,7.18,23.75,2.07,2.69,4.85,4.23,7.85,5.67s6.4,2.71,9.85,3.17c6.06.81,12.44-.53,17.46-4.08,4.64-3.29,7.93-8.29,9.43-13.75.82-2.97,1.09-6.05.85-9.12-.27-3.53-.76-7.21-1.69-10.62s-2.88-6.44-5.06-9.27-4.99-5.47-8.37-7.12c-7.08-3.47-15.12-2.94-22.5-.77-.57.17-.33,1.06.25.89h0Z"/>
      </g>
    </g>
  </g>
</svg>
